!!!OTL: 63o. Beethoven, Piano Sonata in G  minor, op. 49 no. 1, mm. 1-12
!!!OMD: Andante
**kern	**kern	**dynam
*staff2	*staff1	*staff1/2
*clefF4	*clefG2	*clefG2
*k[b-e-]	*k[b-e-]	*k[b-e-]
*g:	*g:	*g:
*M2/4	*M2/4	*M2/4
*MM72	*MM72	*MM72
8r	8d/	p
=1	=1	=1
8r	(8b-/L	.
8B-\ (8d\L	8g/	.
8A\ 8c\	8f#/	.
8G\ 8B-\J)	8g/J)	.
=2	=2	=2
8F#\ (8A\L	2d/ 2cc/	.
8D\ 8F#\	.	.
8En\ 8G\	.	.
8F#\ 8A\J)	.	.
=3	=3	=3
8G\ (8B-\L	(8b-/L	.
8B-\ 8d\	8g/	.
8A\ 8c\	8f#/	.
8G\ 8B-\J)	8g/J)	.
=4	=4	=4
8C\L	2g\ 2ee-\	mfp
8E-\	.	.
8G\	.	.
8c\J	.	.
=5	=5	=5
4B-\	8dd\	.
.	(8ff#\L	.
8r	8gg\J)	.
8B-\ 8d\	(8dd\	.
=6	=6	=6
4F#\ 4d\	8cc\)	.
.	(8gg#\L	.
8r	8aa\J)	.
8F#\ 8d\	(8cc\	.
=7	=7	=7
4G\ 4d\	8b-\L	.
.	8ggn\	.
4C\ 4c\	8a\	.
.	8ee-\J)	.
=8	=8	=8
4D\ (4B-\	(8.g/L	.
.	32a/LL	.
.	32g/JJJ	.
8D\ 8A\)	8f#/)	.
8r	8d/	.
=9	=9	=9
8r	(8b-/L	.
8B-\ (8d\L	8g/	.
8A\ 8c\	8f#/	.
8G\ 8B-\J)	8g/J)	.
=10	=10	=10
8F#\ (8A\L	2d/ 2cc/	mfp
8D\ 8F#\	.	.
8En\ 8G\	.	.
8F#\ 8A\J)	.	.
=11	=11	=11
8G\ (8B-\L	(8b-/L	.
8B-\ 8d\	8g/	.
8A\ 8c\	8f#/	.
8G\ 8B-\J)	8g/J)	.
=12	=12	=12
*^	*	*
8C/L	4.C\	4.ee-\	fp
8E-/	.	.	.
8G/	.	.	.
8A/J	8C\	([8ee-\	.
*v	*v	*	*
=	=	=
*-	*-	*-
!!!hum2abc: -q
